X: 10424
T: EAST STOUGHTON ASSEMBLY
C:
%R: reel
B: Elias Howe "The Musician's Companion" Part 1 1842 p.42 #4
S: http://imslp.org/wiki/The_Musician's_Companion_(Howe,_Elias)
Z: 2015 John Chambers <jc:trillian.mit.edu>
M: C|
L: 1/8
K: D
% - - - - - - - - - - - - - - - - - - - - - - - - -
A,1 |\
DFAF G2eg | fdec dBAF | G2BG F2AF | EFED DCB,A, |\
DFAF G2eg | fdec dBAF | GABG FEDC | D2D2D2 :|
|: eg |\
fdec dBAF | GBeg fdec | dfeg fagf | edcB A2eg |\
fdec dBAF | GBeg fdec | dfec dBAG | D2D2D2 :|
% - - - - - - - - - - - - - - - - - - - - - - - - -


